!!!SOCIAL_FUNCTION:	songs of the sun dance
!!!PDT:	1918

Specific Region: Dakotas, Minnesota, Montana, Nebraska
!!!REG: Dakotas and Montana
!!!LING_GROUP: Siouan
!!!LANG: Tone
!!!OTL@ENG: Dancing Song (e)
!!!ONM: No. 33
**kern
*Imale
*clefF4
*k[b-]
*M2/4
*MM176
4f
8f
8c
=2
4f
4f
=3
8f
8c
4c
=4
8c
8G
4G
=5||
*M3/4
16F
8.F
2F
=6||
*M2/4
4c
8c
8G
=7
8c
8G
4G
=8
4G
4F
=9||
*M3/4
2.D
=10||
*M2/4
16F
8.F
8G
8F
=11
16G
8.F
4F
=12
8G
8D
4G
=13
16G
8.F
4F
=14
2F
=15
8F
8D
4F
=16
2G
=17||
*M3/4
8F
8F
2F
=18||
*M2/4
4c
8c
8G
=19
8c
8G
4G
=20
4G
4F
=21||
*M3/4
2.D
=22||
*M2/4
16F
8.F
8G
8F
=23
16G
8.F
4F
=24
8F
8D
4F
=25
16G
8.F
4F
=26
2F
==||
*-
!!!CNT: Native American -- Sioux
!!!MRD: 1911/07//-1914///
!!!OCL: Frances Densmore
!!!YOR1: Teton Sioux Music, Bulletin 61,
!!!YOR2: Bureau of American Ethnology, Smithsonian Institution
!!!PPR: Government Printing Office
!!!PPP: Washington, D.C.
!!!PDT: 1918///
!!!ENC: Craig Stuart Sapp
!!!END: 2002/03/25/
!!!EEV: 2002/03/31/
!!!AGN: Ceremonial Song/Song of the Sun Dance
!!!MPN@@SIO: Shiya'ka
!!!MPN@ENG: Teal Duck
!!!TXO: Teton Sioux
!!!MLC: Standing Rock Reservation, South Dakota, United States of America
!!!ARL: 45.9/-100.7#
!!!catalog: Catalogue No. 457
!!!PPG: 146
!!!EFL: 33/245
!!!VTS: 1335245451
